X: 2536
T: Ballygow, The
R: polka
M: 2/4
K: Dmajor
DF/A/ df|ed Bd|Ad Fd|AG/F/ EF/E/|
DF/A/ df|e/f/e/d/ Bd|Ad EF/G/|FD D:|
fg/f/ ed|Bd Ad|fg/f/ ed|e2 eA/d/|
fg/f/ ed|Bd Ad|Fd EF/G/|FD D:|

